X: 138
T: Nightingale, The
M:3/4
R:waltz
L:1/8
Z:added by Alf warnock alf0@rogers.com - www.alfwarnock.info/alfs
K:C
G2| "C"c2 c2 d2| e2 f2 e2| "G7"d2 e2 d2| "C"c4 g2|\
g2 g2 a2| ge c2 g2| g2 e2 c2|"G7"d4 g2|
"C"g2 g2 a2| ge c2 g2| g2 e2 c2| "G7"d4 cd|\
"C"e2 e2 ee|"F"dc A2 AA|"G7"G2 A2 B2| "C"c6-|
c4 cd|"C"e2 e2 ee|"F"dc A2 AA|"G7"G2 A2 B2|\
"C"c4 ce|g2 g2 a2| ge c2 g2| g2 e2 c2|
"G7"d4 ce|"C"g2 g2 a2| ge c2 g2|\
g2 e2 c2| "G7"d4 cd|"C"e2 e2 ee|"F"dc A2 AA|\

